X:148
T:Scotch Set Of Quadrilles.#5. RHu.144e
S:R.Hughes MS,1823,Whitchurch,Shrops.
A:Whitchurch, Shropshire
Z:Tony Weatherall 2006
M:2/4
L:1/8
Q:1/4=100
K:D
f/e/|dD G/F/E/D/|CEE f/e/|dDFA|d2e/d/c/B/|
AD G/A/E/D/|CEEF|B,C/D/ A,B,/C/|CDD||
A|d>efd|e/d/c/B/”incomplete” AA|

